healthcode/tfjkt/static/code-refresh.svg

<?xml version="1.0" encoding="UTF-8"?>
<svg width="32px" height="32px" viewBox="0 0 32 32" version="1.1" xmlns="http://www.w3.org/2000/svg" xmlns:xlink="http://www.w3.org/1999/xlink">
    <!-- Generator: Sketch 52.2 (67145) - http://www.bohemiancoding.com/sketch -->
    <title>05刷新</title>
    <desc>Created with Sketch.</desc>
    <g id="05刷新" stroke="none" stroke-width="1" fill="none" fill-rule="evenodd">
        <g id="编组-17">
            <rect id="矩形" fill="#FFFFFF" opacity="0" x="0" y="0" width="32" height="32"></rect>
            <path d="M0.00656092264,15.5404115 L0,16 C0,15.8159414 0.00310790592,15.6326088 0.00927410222,15.4500516 L0.0285257806,15.0371858 L0.0511393078,14.7178538 C0.0710108731,14.4607411 0.0974724777,14.2053624 0.129867349,13.9518382 L0.153885273,13.7797337 C0.243796505,13.1244461 0.374350204,12.4822989 0.542033607,11.8553266 C0.749718339,11.0827327 1.01531857,10.3214954 1.33988455,9.57984805 L7.60410709,16.5387864 L4.04219847,20.5759605 C5.88370599,25.3852224 10.543071,28.8 16,28.8 C19.5346224,28.8 22.7346224,27.3673112 25.0509668,25.0509668 L27.3137085,27.3137085 C24.418278,30.209139 20.418278,32 16,32 C9.86659417,32 4.53923902,28.5488868 1.85385818,23.482584 L1.71436096,23.2151999 L1.60159968,22.9875286 L1.41563721,22.5903847 L1.32160822,22.3776803 C1.27392516,22.2683899 1.22789654,22.159021 1.18313785,22.0492555 C0.593088125,20.6057208 0.207897319,19.0564859 0.0637340948,17.4378908 L0.0246912124,16.8913025 L0.0061651726,16.4472422 L0.000205928822,15.9185687 C0.000843549936,15.7925007 0.00296188121,15.6664389 0.00656092264,15.5404115 Z M16,0 C22.1337199,0 27.4613066,3.45146669 30.1465544,8.51819436 L30.2862233,8.78595652 C30.4036374,9.01837501 30.5150183,9.25306036 30.620366,9.48977962 L30.799376,9.90785598 L30.997032,10.4130888 C31.4857921,11.7233259 31.8073906,13.1150589 31.9362777,14.5622451 L31.9720953,15.0517886 L31.975128,15.1054437 C31.9917304,15.4014572 32,15.6997628 32,16 L31.9998863,16.0605056 C31.9993864,16.1935213 31.9972382,16.326532 31.9934415,16.4595044 L32,16 C32,16.1792054 31.9970538,16.3577227 31.9912073,16.5355062 L31.9692071,17.000825 L31.9515589,17.2479201 C31.9302339,17.5306498 31.9011221,17.8108974 31.8648738,18.0889023 L31.8156043,18.436902 C31.7270002,19.0167201 31.6072728,19.5862964 31.4581806,20.1438726 C31.2503794,20.9169976 30.9847176,21.67844 30.6600587,22.4202816 L24.3963664,15.4598728 L27.9578015,11.4240395 C26.116294,6.61477762 21.456929,3.2 16,3.2 C12.4653776,3.2 9.2653776,4.6326888 6.9490332,6.9490332 L4.6862915,4.6862915 C7.581722,1.790861 11.581722,0 16,0 Z" id="形状备份-9" fill="#919EAB"></path>
        </g>
    </g>
</svg>

<svg height="32" viewBox="0 0 32 32" width="32" xmlns="http://www.w3.org/2000/svg"><g fill="none" fill-rule="evenodd"><path d="m0 0h32v32h-32z" fill="#fff" opacity="0"/><path d="m.00656092 15.5404115-.00656092.4595885c0-.1840586.00310791-.3673912.0092741-.5499484l.01925168-.4128658.02261353-.319332c.01987156-.2571127.04633317-.5124914.07872804-.7660156l.02401792-.1721045c.08991124-.6552876.22046493-1.2974348.38814834-1.9244071.20768473-.7725939.47328496-1.5338312.79785094-2.27547855l6.26422254 6.95893835-3.56190862 4.0371741c1.84150752 4.8092619 6.50087253 8.2240395 11.95780153 8.2240395 3.5346224 0 6.7346224-1.4326888 9.0509668-3.7490332l2.2627417 2.2627417c-2.8954305 2.8954305-6.8954305 4.6862915-11.3137085 4.6862915-6.13340583 0-11.46076098-3.4511132-14.14614182-8.517416l-.13949722-.2673841-.11276128-.2276713-.18596247-.3971439-.09402899-.2127044c-.04768306-.1092904-.09371168-.2186593-.13847037-.3284248-.59004972-1.4435347-.97524053-2.9927696-1.11940376-4.6113647l-.03904288-.5465883-.01852604-.4440603-.00595924-.5286735c.00063762-.126068.00275595-.2521298.00635499-.3781572zm15.99343908-15.5404115c6.1337199 0 11.4613066 3.45146669 14.1465544 8.51819436l.1396689.26776216c.1174141.23241849.228795.46710384.3341427.7038231l.17901.41807636.197656.50523282c.4887601 1.3102371.8103586 2.7019701.9392457 4.1491563l.0358176.4895435.0030327.0536551c.0166024.2960135.024872.5943191.024872.8945563l-.0001137.0605056c-.0004999.1330157-.0026481.2660264-.0064448.3989988l.0065585-.4595044c0 .1792054-.0029462.3577227-.0087927.5355062l-.0220002.4653188-.0176482.2470951c-.021325.2827297-.0504368.5629773-.0866851.8409822l-.0492695.3479997c-.0886041.5798181-.2083315 1.1493944-.3574237 1.7069706-.2078012.773125-.473463 1.5345674-.7981219 2.276409l-6.2636923-6.9604088 3.5614351-4.0358333c-1.8415075-4.80926188-6.5008725-8.2240395-11.9578015-8.2240395-3.5346224 0-6.7346224 1.4326888-9.0509668 3.7490332l-2.2627417-2.2627417c2.8954305-2.8954305 6.8954305-4.6862915 11.3137085-4.6862915z" fill="#919eab"/></g></svg>
